src/components/icons/BooksIcon.svg

<svg width="36" height="36" viewBox="0 0 36 36" fill="none" xmlns="http://www.w3.org/2000/svg">
<path d="M14.7857 28.8142V9.74645C12.0814 8.96346 9.29892 8.56761 6.4891 8.56761H5.08928C4.64571 8.56761 4.28571 8.9565 4.28571 9.43696V26.824C4.28571 27.3039 4.64571 27.6933 5.08928 27.6933H6.4891C9.30321 27.6933 12.0884 28.1112 14.7884 28.9377C14.7862 28.8959 14.7857 28.8548 14.7857 28.8142Z" fill="#FFA000"/>
<path d="M30.9107 8.56761H29.5109C26.7011 8.56761 23.9186 8.96346 21.2143 9.74645C21.2143 9.74645 21.2138 28.8959 21.2116 28.9377C23.9116 28.1112 26.6968 27.6933 29.5109 27.6933H30.9107C31.3543 27.6933 31.7143 27.3039 31.7143 26.824V9.43696C31.7143 8.9565 31.3543 8.56761 30.9107 8.56761Z" fill="#FF8F00"/>
<path d="M29.5109 8.56761H30.9107C31.3543 8.56761 31.7143 8.9565 31.7143 9.43696V26.824C31.7143 27.3039 31.3543 27.6933 30.9107 27.6933H29.5109C26.6968 27.6933 23.9116 28.1112 21.2116 28.9377C23.978 25.5035 29.5109 16.6217 29.5109 8.56761Z" fill="black" fill-opacity="0.1"/>
<path d="M18 30.8571C16.887 30.8571 16.3928 29.8244 16.3928 29.4318V10.3061C16.5505 11.1586 17.1963 11.7314 18 11.7314C18.8036 11.7314 19.4494 11.1586 19.6071 10.3061V29.4319C19.6071 29.8244 19.1129 30.8571 18 30.8571Z" fill="#FF6F00"/>
<path d="M28.9457 6.83471C25.5064 6.89614 22.1116 7.52323 18.8448 8.70149C18.5255 8.81625 18.24 8.99881 18 9.2318C17.76 8.99881 17.4744 8.81625 17.1552 8.70149C13.8884 7.52323 10.4935 6.89614 7.05426 6.83471L7.61408 5.62341C7.75712 5.31392 8.05658 5.12614 8.37533 5.14411C13.7994 5.45707 17.6952 7.08624 18 7.17317C18.1596 7.12739 22.3623 5.44722 27.6246 5.14411C27.9439 5.12556 28.2428 5.31392 28.3859 5.62341L28.9457 6.83471Z" fill="#E65100"/>
</svg>

<svg width="36" height="36" fill="none" xmlns="http://www.w3.org/2000/svg"><path d="M14.786 28.814V9.746a29.776 29.776 0 00-8.297-1.178h-1.4c-.443 0-.803.389-.803.869v17.387c0 .48.36.87.803.87h1.4c2.814 0 5.6.417 8.3 1.244a2.34 2.34 0 01-.003-.124z" fill="#FFA000"/><path d="M30.91 8.568h-1.4c-2.809 0-5.591.395-8.296 1.178 0 0 0 19.15-.002 19.192a28.295 28.295 0 018.299-1.245h1.4c.443 0 .803-.39.803-.869V9.437c0-.48-.36-.87-.803-.87z" fill="#FF8F00"/><path d="M29.51 8.568h1.4c.444 0 .804.389.804.869v17.387c0 .48-.36.87-.803.87h-1.4c-2.814 0-5.6.417-8.3 1.244 2.767-3.434 8.3-12.316 8.3-20.37z" fill="#000" fill-opacity=".1"/><path d="M18 30.857c-1.113 0-1.607-1.033-1.607-1.425V10.306c.157.853.803 1.425 1.607 1.425.804 0 1.45-.572 1.607-1.425v19.126c0 .392-.494 1.425-1.607 1.425z" fill="#FF6F00"/><path d="M28.946 6.835c-3.44.061-6.834.688-10.101 1.866-.32.115-.605.298-.845.53a2.358 2.358 0 00-.845-.53 31.348 31.348 0 00-10.1-1.866l.56-1.212a.797.797 0 01.76-.479c5.424.313 9.32 1.942 9.625 2.03.16-.047 4.362-1.727 9.625-2.03.319-.018.618.17.76.48l.56 1.21z" fill="#E65100"/></svg>
